**kern	**kern	**kern	**kern
*staff3	*staff4	*staff1	*staff2
*clefF4	*clefF4	*clefG2	*clefG2
*k[f#c#]	*k[f#c#]	*k[f#c#]	*k[f#c#]
*M2/4	*M2/4	*M2/4	*M2/4
*D:	*D:	*D:	*D:
=-	=-	=-	=-
*M2/4	*M2/4	*M2/4	*M2/4
2r	24aLL	4r	2r
.	24f#	.	.
.	24aJ	.	.
.	24gL	.	.
.	24e	.	.
.	24gJJ	.	.
.	24f#LL	4dd 4ddd	.
.	24d	.	.
.	24f#J	.	.
.	24eL	.	.
.	24c#	.	.
.	24eJJ	.	.
=269	=269	=269	=269
2r	24dLL	4r	2r
.	24B	.	.
.	24dJ	.	.
.	24c#L	.	.
.	24A	.	.
.	24c#JJ	.	.
.	24BLL	4d) 4dd	.
.	24G	.	.
.	24BJ	.	.
.	24A#L	.	.
.	24F#	.	.
.	24A#JJ	.	.
=270	=270	=270	=270
2r	24BLL	4r	2r
.	24G	.	.
.	24BJ	.	.
.	24GL	.	.
.	24D	.	.
.	24GJJ	.	.
.	24DLL	4dd 4ddd	.
.	24BB	.	.
.	24DJ	.	.
.	24BBL	.	.
.	24GG	.	.
.	24BBJJ	.	.
=271	=271	=271	=271
2r	24AALL	4r	2r
.	24FF#	.	.
.	24AAJ	.	.
.	24GG#L	.	.
.	24EE#	.	.
.	24GG#JJ	.	.
.	24AALL	[4d) [4dd	.
.	24FF#	.	.
.	24AAJ	.	.
.	24GGL	.	.
.	24EE	.	.
.	24GGJJ	.	.
=272	=272	=272	=272
2r	8FF#L	24dLL] 24dd]	2r
.	.	24d	.
.	.	24eJ	.
.	(8AAJ	24f#L	.
.	.	24g	.
.	.	24aJJ	.
.	8FF#L	24bLL	.
.	.	24cc#	.
.	.	24ddJ	.
.	8DDJ)	24eeL	.
.	.	24ff	.
.	.	24ff#JJ	.
=273	=273	=273	=273
2r	8CC#L	24ggLL	2r
.	.	24a	.
.	.	24bJ	.
.	(8EJ	24cc#L	.
.	.	24dd	.
.	.	24eeJJ	.
.	8C#L	24ff#LL	.
.	.	24gg	.
.	.	24aaJ	.
.	8GGJ)	24bbL	.
.	.	24ccc	.
.	.	24ccc#JJ	.
=274	=274	=274	=274
2r	8FF#L	24dddLL	2r
.	.	24aa	.
.	.	24ggJ	.
.	(8AJ	24ff#L	.
.	.	24ee	.
.	.	24ddJJ	.
.	8F#L	24cc#LL	.
.	.	24dd	.
.	.	24aJ	.
.	8DJ)	24f#L	.
.	.	24e	.
.	.	24dJJ	.
=275	=275	=275	=275
2r	8AA	24c#LL	2r
.	.	24d	.
.	.	24eJ	.
.	8r	24f#L	.
.	.	24g#	.
.	.	24aJJ	.
.	4r	8A	.
.	.	8r	.
=276:|!	=276:|!	=276:|!	=276:|!
*-	*-	*-	*-
